X: 133028
T: The LADS O' DUNSE
Q: "Scotch Jig."
R: Jig.
%R: jig
B: James Kerr "Merry Melodies" v.1 p.33 s.0 #28
Z: 2016 John Chambers <jc:trillian.mit.edu>
M: 6/8
L: 1/8
K: D
uB |\
vA2vD DED | DED uB2uA | Bcd AFA | BGE uE2ud |\
A2D DED | DED B2A | Bcd AFd | AFD D2 :|\
ug |\
fef ud2ue | fga B2A | Bcd AFA | BGE E2g |
fef d2e | fga B2A | Bcd AFd | AFD D2g |\
fef d2e | fga B2A | Bcd AFA | BGE E2 f/g/ |\
afa geg | fdf ece | dcB AFd | AFD D2 |]

%%sep 1 1 500
%%sep 1 1 500

